!!!COA: Josquin des Prez
!!!CDT: ~1450-1521/08/27
!!!OTL@@FRE: Mi lares vous tousjours languir
!!!AGN: Chanson
!!!SCT: NJE 29.16
!!!SCA: New Josquin Edition 29.16
!!!voices: 5
**kern	**kern	**kern	**kern	**kern
*staff5	*staff4	*staff3	*staff2	*staff1
*I"Bassus	*I"Tenor	*I"Quintus	*I"Contratenor	*I"Superius
*I'B	*I'T	*I'Q	*I'Ct	*I'S
*clefF4	*clefF4	*clefGv2	*clefGv2	*clefG2
*k[b-]	*k[b-]	*k[b-]	*k[b-]	*k[b-]
*M2/1	*M2/1	*M2/1	*M2/1	*M2/1
*met(C|)	*met(C|)	*met(C|)	*met(C|)	*met(C|)
=1-	=1-	=1-	=1-	=1-
0r	0r	1e	1A	0a
.	.	1f	1d	.
=2	=2	=2	=2	=2
0r	0r	1d	1G	1dd
.	.	1e	2.c\	1g
.	.	.	4d\	.
=3	=3	=3	=3	=3
0r	0A	2.c\	2e\	1.cc
.	.	.	2f\	.
.	.	4d\	.	.
.	.	2e\	2r	.
.	.	2f\	2F/	2cc\
=4	=4	=4	=4	=4
0r	1d	2.B-\	2G/	2b-\
.	.	.	2A/	1a
.	.	4c\	.	.
.	1G	2d\	1B-	.
.	.	2e\	.	2g/
=5	=5	=5	=5	=5
0AA	1.c	2f\	1A	0a
.	.	2e\	.	.
.	.	1c	1E	.
.	2B-\	.	.	.
=6	=6	=6	=6	=6
1D	1A	1d	1F	0r
1GG	1G	2B-\	1D	.
.	.	[2d\	.	.
=7	=7	=7	=7	=7
1C	1A	2d\]	1E	0r
.	.	1c	.	.
1D	1r	.	1F	.
.	.	[2B-\	.	.
=8	=8	=8	=8	=8
2C/	1r	2B-\]	2E/	0r
2AA/	.	1A	2C/	.
1BB-	1d	.	1D	.
.	.	2G/	.	.
=9	=9	=9	=9	=9
0AA	2c\	1A	0E	1r
.	2A\	.	.	.
.	2.c\	2.e\	.	1a
.	4B-\	4d\	.	.
=10	=10	=10	=10	=10
0r	2A\	2e\	0r	2a/
.	2F\	2f\	.	2a/
.	1G	1d	.	2b-\
.	.	.	.	2b-\
=11	=11	=11	=11	=11
0r	[0A	2.c\	0r	2.cc\
.	.	4d\	.	4b-\
.	.	2e\	.	4a/
.	.	.	.	4g/
.	.	[2f\	.	[2a/
=12	=12	=12	=12	=12
1r	0A]	4f\]	1r	2a/]
.	.	4e\	.	.
.	.	1d	.	4g/
.	.	.	.	4f/
1AA	.	.	1E	1e
.	.	2c#i\	.	.
=13	=13	=13	=13	=13
1D	2r	0d	2F/	0d
.	2A\	.	4D/	.
.	.	.	4E/	.
1D	2B-\	.	4F/	.
.	.	.	4G/	.
.	[2A\	.	4A/	.
.	.	.	4B-\	.
=14	=14	=14	=14	=14
1AA	2A\]	0r	4c\	1a
.	.	.	4A/	.
.	4G\	.	1d	.
.	4F\	.	.	.
2AA/	1E	.	.	2a/
2AA/	.	.	2c#i\	2a/
=15	=15	=15	=15	=15
2BB-/	[0D	0r	[0d	2f/
4GG/	.	.	.	1g
4AA/	.	.	.	.
4BB-/	.	.	.	.
4C/	.	.	.	.
4D\	.	.	.	2f/
4E\	.	.	.	.
=16	=16	=16	=16	=16
4F\	0D]	1r	0d]	1b-
4D\	.	.	.	.
1G	.	.	.	.
.	.	1A	.	1a
2F#i\	.	.	.	.
=17	=17	=17	=17	=17
0G	0r	2B-\	2r	0g
.	.	4G/	1d	.
.	.	4A/	.	.
.	.	4B-\	.	.
.	.	4c\	.	.
.	.	4d\	[2B-\	.
.	.	4e\	.	.
=18	=18	=18	=18	=18
0D	0d	4f\	2B-\]	1r
.	.	4d\	.	.
.	.	1g	4A/	.
.	.	.	4G/	.
.	.	.	2A/	1a
.	.	2f#i\	2A/	.
=19	=19	=19	=19	=19
1r	1d	1g	1G	2b-\
.	.	.	.	2g/
1D	1d	1r	1F	2b-\
.	.	.	.	[2a/
=20	=20	=20	=20	=20
2E-\	2B-\	1G	2G/	2a/]
2E-i\	2c\	.	2C/	1g
1D	1d	2A/	1F	.
.	.	2A/	.	2f#i/
=21	=21	=21	=21	=21
0GG	1d	2.B-\	0D	1g
.	.	4A/	.	.
.	2r	2G/	.	2r
.	2c\	2F/	.	2f/
=22	=22	=22	=22	=22
0r	2B-\	1E-i	2r	2g/
.	2c\	.	2G/	2g/
.	1d	1D	2A/	2f/
.	.	.	2A/	2f/
=23	=23	=23	=23	=23
0r	1G	2.d\	2.B-\	2.g/
.	.	4c\	4A/	4f/
.	2r	2B-\	2G/	4e/
.	.	.	.	4d/
.	2f\	2A/	2F/	[2d/
=24	=24	=24	=24	=24
2r	2e\	1G	1E	2d/]
2G\	2e\	.	.	2c#i/
2A\	2.f\	1F	1D	2d/
2A\	.	.	.	2a/
.	4e\	.	.	.
=25	=25	=25	=25	=25
2.B-\	2d\	0r	1r	2f/
.	2c\	.	.	4g/
4A\	.	.	.	4f/
2G\	2B-\	.	2r	4e/
.	.	.	.	4d/
2F\	2A\	.	2d\	[2d/
=26	=26	=26	=26	=26
1E	1G	2r	2e\	2d/]
.	.	2G/	2e\	2c#i/
2D\	[1F	2A/	2.f\	1d
2D\	.	2A/	.	.
.	.	.	4e\	.
=27	=27	=27	=27	=27
2D\	1F]	2.B-\	2d\	0r
2D\	.	.	2c\	.
.	.	4A/	.	.
2.E-i\	1r	4G/	2B-\	.
.	.	4F/	.	.
.	.	[2E-i/	4c\	.
4D\	.	.	4B-\	.
=28	=28	=28	=28	=28
2C/	1r	4E-/]	4A/	2r
.	.	4D/	4G/	.
2BB-/	.	1D	1G	2g/
*	*M3/3%2	*	*	*
*	*met(3)	*	*	*
1AA	3%2c	.	.	2a/
.	.	2C/	2F#i/	2a/
.	3c\	.	.	.
=29	=29	=29	=29	=29
1GG	3.B-\	0D	1G	1.b-
.	6A\	.	.	.
.	3G\	.	.	.
1r	3.d\	.	1r	.
.	6e\	.	.	2a/
.	3f\	.	.	.
=30	=30	=30	=30	=30
*	*M2/1	*	*	*
*	*met(C|)	*	*	*
0r	2e\	0r	2r	2g/
.	1d	.	2F/	2f/
.	.	.	2G/	1e
.	2c#i\	.	2A/	.
=31	=31	=31	=31	=31
0r	0d	2r	2.B-\	2d/
.	.	2d\	.	1b-
.	.	.	4A/	.
.	.	2d\	2G/	.
.	.	2d\	2F/	[2a/
=32	=32	=32	=32	=32
2r	2r	2r	1B-	2a/]
2G\	2G\	2d\	.	1g
2D\	2A\	2d\	1A	.
2D\	2A\	2d\	.	2f#i/
=33	=33	=33	=33	=33
2G\	2.B-\	1d	1G	1g
2G\	.	.	.	.
.	4B-\	.	.	.
2F\	2A\	2r	2r	1r
2D\	2d\	2f\	2F/	.
=34	=34	=34	=34	=34
2E\	1c	2e\	2G/	1r
2F\	.	2c\	2A/	.
1BB-	1B-	2.d\	2F/	2r
.	.	.	[2B-\	2f/
.	.	4c\	.	.
=35	=35	=35	=35	=35
0r	0r	4d\	2B-\]	2g/
.	.	4e\	.	.
.	.	2f\	2A/	2a/
.	.	1B-	2.G/	2.b-\
.	.	.	4F/	4a/
=36	=36	=36	=36	=36
0r	2r	0r	4E/	2g/
.	.	.	4D/	.
.	2F\	.	1d	2f/
.	2G\	.	.	2e/
.	2A\	.	2c#i\	2e/
=37	=37	=37	=37	=37
0r	2.B-\	0r	[0d	2d/
.	.	.	.	1b-
.	4A\	.	.	.
.	2G\	.	.	.
.	2F\	.	.	[2a/
=38	=38	=38	=38	=38
2r	1B-	2r	1d]	2a/]
2BB-/	.	2d\	.	1g
2C/	1A	2e-\	1r	.
2D\	.	2d\	.	2f#i/
=39	=39	=39	=39	=39
2.E-\	[0Gl	2B-\	1r	[0gl
.	.	1e-i	.	.
4D\	.	.	.	.
2C/	.	.	2r	.
2BB-/	.	2d\	[2G/	.
=40	=40	=40	=40	=40
1C	0G_	2c\	2G/]	0g_
.	.	2e-i\	1c	.
1GG	.	1d	.	.
.	.	.	2B-\	.
=41	=41	=41	=41	=41
0C	0G_	1G	2c\	0g_
.	.	.	2d\	.
.	.	1c	1e-	.
=42	=42	=42	=42	=42
0GGl	0G]	0B-l	0dl	0g]
==	==	==	==	==
*-	*-	*-	*-	*-
!!!RDF**kern: l=long note in original notation
!!!RDF**kern: i=editorial accidental
!!!ENC: Will Watson 09/12/2011
!!!END: 2011/12/09/
!!!EED: Jesse Rodin
!!!EEV: 2012/01/24/
!!attribution-level@Jos: 3 (tricky)
!!!ONB: Translated from MusicXML and edited on 2012/01/24/ by Craig Sapp
!!muse2ps:  C^@{COA}?\n@{SCT}^i2I100v90,90,90,90,90,130Q16
